X:293
T:Mere Point
C:Bill Bay
N:Mandolin arrangement by Mike Stangeland
R:bluegrass
L:1/8
Q:1/4=210
M:4/4
K:A
z6 ed |: "A"cA =GF ED CD | "A"EA A=G "C"AB =cd | "A"ee aa "C"=ga ge | "G"dB A=G "E7"E2 ed | 
"A"cA =GF ED CD | "A"EA A=G "C"AB =cd | "A"ee aa "C"=ga ge |1 =cA "E7"BG "A"A2 "E7"ed :|2 cA "E7"BG "A"A2 AB | 
"A"ce =ge =c^c AE | "G"=GA BG "E7"E2 AB | "A"ce ag ae cA | "E7"BA GF ED CB, | 
"A"A,C EA "G"=GB df | "C"a=g ed "A"c2 AB | "A"ca =ge "G"dc A=G | "E7"ED =CB, "A"A,4 | 
z8 | 


